X:1
T:Maldives, 11.11.11.11
T:Maldives, 11.11.11.11
T:Philip Paul Bliss, 1870
T:Public Domain Courtesy of the Cyber Hymnal™
C:Philip Paul Bliss, 1870
Z:Public Domain
Z:Courtesy of the Cyber Hymnal™
%%score ( 1 2 ) ( 3 4 )
L:1/8
Q:1/4=82
M:4/8
K:C
V:1 treble 
V:2 treble 
V:3 bass 
V:4 bass 
V:1
 [EG] ([CE]/[DF]/)[EG][EG] | [FA] [Fc]3 | G[CE][B,F][CE] | [B,D]3 z | [EG] ([CE]/[DF]/)[EG][EG] | %5
 [FA] [Fc]3 | [DB] ([CA]/[DB]/)[Ec][Fd] | [Ec]3 z | [Gd][Gd][Gd] (c/d/) | [Ge] [Ec]3 | %10
 [FA][FB] (c/c/)[FA] | [EG]3 z | [Ec] ([CE]/[DF]/)[EG][EG] | [FA] [Fc]3 | %14
 [DB] ([CA]/[DB]/)[Ec][Fd] | [Ec]3 z |] %16
V:2
 x4 | x4 | G x3 | x4 | x4 | x4 | x4 | x4 | x3 G | x4 | x2 F x | x4 | x4 | x4 | x4 | x4 |] %16
V:3
 [C,C][C,C][C,C][C,C] | [F,C] [F,A,]3 | [E,C][C,G,][D,G,]G, | G,3 z | [C,G,][C,C][C,C][C,C] | %5
 [F,C] [F,A,]3 | G,G,G,[G,,G,] | [C,G,]3 z | [G,B,][G,B,][G,B,] (A,/B,/) | [C,C] [C,C]3 | %10
 [F,C][F,A,][F,A,][F,C] | [C,C]3 z | [C,G,][C,C][C,C][C,C] | [F,C] [F,A,]3 | G,G,G,[G,,G,] | %15
 [C,G,]3 z |] %16
V:4
 x4 | x4 | x3 (E,/F,/) | G,3 x | x4 | x4 | G,G,G, x | x4 | x3 G, | x4 | x4 | x4 | x4 | x4 | %14
 G,G,G, x | x4 |] %16

